svg/publishing/home.svg

<svg width="16" height="16" viewBox="0 0 16 16" fill="none" xmlns="http://www.w3.org/2000/svg">
<path d="M13.8076 15.495L10.5674 15.454C10.302 15.4515 10.047 15.3499 9.8525 15.1693C9.65798 14.9886 9.53788 14.7419 9.51573 14.4773V12.8408C9.58657 11.7263 9.29744 10.6185 8.69095 9.68076C8.57556 9.56561 8.43802 9.47505 8.28663 9.41457C8.13525 9.35409 7.97317 9.32493 7.81019 9.32886C7.69886 9.32649 7.58822 9.3469 7.48507 9.38885C7.38192 9.43079 7.28843 9.49339 7.21036 9.57279C6.49155 10.2626 6.3336 12.103 6.3336 12.7548L6.29061 14.3643C6.28654 14.6287 6.1843 14.882 6.00377 15.0751C5.82323 15.2682 5.57732 15.3872 5.31387 15.409L2.12074 15.455H2.10474C1.96665 15.4513 1.8307 15.42 1.70485 15.363C1.5796 15.306 1.46707 15.2244 1.37394 15.1231C1.28086 15.0222 1.2085 14.904 1.161 14.7752C1.11519 14.6471 1.09448 14.5113 1.10002 14.3753C0.878079 6.15482 1.19999 5.86891 1.39994 5.69796L7.0554 0.815432C7.30482 0.617198 7.61332 0.507962 7.93191 0.505064C8.2505 0.502166 8.56093 0.605773 8.81392 0.799436L14.6543 5.85991C14.8663 6.04585 15.1832 6.32377 14.7833 14.4573C14.7795 14.7175 14.679 14.9669 14.5014 15.1571C14.3206 15.3526 14.073 15.4732 13.8076 15.495V15.495ZM2.15073 6.36676C1.99879 9.03509 1.98344 11.7094 2.10474 14.3793L2.12274 14.9532L2.11574 14.4533L5.26289 14.4093L5.33087 12.7388C5.33087 12.4699 5.36386 9.95268 6.51555 8.84901C6.69349 8.67103 6.90706 8.53271 7.14225 8.44312C7.37744 8.35352 7.62892 8.31469 7.88017 8.32917V8.32917C8.16548 8.3275 8.44804 8.38491 8.71008 8.49777C8.97212 8.61064 9.20796 8.77652 9.40276 8.98497C10.5804 10.2006 10.5125 12.7468 10.5085 12.8548V14.4343L13.7676 14.4953C13.953 11.8467 13.9977 9.19008 13.9015 6.53671L8.17609 1.5712C8.10262 1.52614 8.01757 1.50355 7.93142 1.50622C7.84527 1.50888 7.76178 1.53668 7.69123 1.5862L2.15073 6.36676Z" fill="black"/>
</svg>

<svg id="Layer_1" data-name="Layer 1" xmlns="http://www.w3.org/2000/svg" viewBox="0 0 16 16"><title>home</title><path d="M13.806,15.5l-3.241-.041a1.066,1.066,0,0,1-1.052-.977l0-1.637a5.212,5.212,0,0,0-.825-3.161,1.206,1.206,0,0,0-.881-.352.817.817,0,0,0-.6.244c-.719.69-.877,2.531-.877,3.183l-.043,1.61a1.065,1.065,0,0,1-.977,1.045l-3.194.046H2.1a1.038,1.038,0,0,1-.4-.092,1.028,1.028,0,0,1-.331-.24,1.048,1.048,0,0,1-.213-.348,1.06,1.06,0,0,1-.061-.4c-.222-8.223.1-8.509.3-8.68L7.052.816A1.43,1.43,0,0,1,8.811.8l5.842,5.062c.212.186.529.464.129,8.6a1.048,1.048,0,0,1-.282.7A1.064,1.064,0,0,1,13.806,15.5ZM2.146,6.369A78.4,78.4,0,0,0,2.1,14.384l.018.574-.007-.5,3.148-.044.068-1.671c0-.269.033-2.787,1.185-3.891a1.785,1.785,0,0,1,1.365-.52h0A2.068,2.068,0,0,1,9.4,8.988c1.178,1.216,1.11,3.763,1.106,3.871v1.58l3.26.061a75.087,75.087,0,0,0,.134-7.961L8.173,1.572a.442.442,0,0,0-.485.015Z"/></svg>
